common/icons/svgs/ticket_sold_out.svg

<svg xmlns="http://www.w3.org/2000/svg" width="24" height="24" viewBox="0 0 24 24">
  <g fill="none" fill-rule="evenodd" transform="translate(-72 -360)">
    <rect width="504" height="450" fill="#FFF"/>
    <g transform="translate(72 360)">
      <rect width="24" height="24"/>
      <path fill="#000" fill-rule="nonzero" d="M9.45,10 C9.91239116,10.0036398 10.3303429,9.72519409 10.5050936,9.29708076 C10.6798443,8.86896743 10.576128,8.37758305 10.243268,8.05661095 C9.91040806,7.73563886 9.41557819,7.64985367 8.99410029,7.84005149 C8.57262239,8.03024931 8.30955391,8.45804677 8.33,8.92 C8.35658364,9.52062328 8.84880734,9.99526756 9.45,10 L9.45,10 Z M14,10 C14.4579306,10.0040526 14.8730287,9.73132134 15.0510864,9.30940633 C15.2291441,8.88749132 15.1349501,8.39982715 14.812574,8.07457269 C14.4901979,7.74931823 14.0033902,7.6507932 13.5799092,7.82509358 C13.1564282,7.99939396 12.8800179,8.41205151 12.88,8.87 C12.8799757,9.49019729 13.379827,9.99451153 14,10 L14,10 Z M11.7,11.16 C10.0987213,11.1737393 8.60518705,11.9690463 7.7,13.29 C7.49285623,13.5846595 7.46017815,13.96795 7.61445151,14.2934227 C7.76872486,14.6188954 8.08611051,14.8362565 8.44534071,14.8624559 C8.80457091,14.8886553 9.15013548,14.7196447 9.35,14.42 C9.8887004,13.6328115 10.7811321,13.1621382 11.735,13.1621382 C12.6888679,13.1621382 13.5812996,13.6328115 14.12,14.42 C14.4348744,14.867905 15.0513943,14.9793221 15.5031221,14.669957 C15.9548498,14.3605919 16.0738094,13.7454828 15.77,13.29 C14.8507958,11.9486622 13.3260495,11.1506991 11.7,11.16 L11.7,11.16 Z M23.51,10.27 L20.91,7.67 C20.6486011,7.40805623 20.2639138,7.3118844 19.91,7.42 C18.9159268,7.72462957 17.834889,7.45547195 17.0997085,6.72029146 C16.364528,5.98511097 16.0953704,4.9040732 16.4,3.91 C16.5081156,3.55608623 16.4119438,3.17139892 16.15,2.91 L13.55,0.31 C13.1599625,-0.0777235947 12.5300375,-0.0777235947 12.14,0.31 L0.32,12.16 C-0.0677235947,12.5500375 -0.0677235947,13.1799625 0.32,13.57 L2.92,16.17 C3.18139892,16.4319438 3.56608623,16.5281156 3.92,16.42 C4.9140732,16.1153704 5.99511097,16.384528 6.73029146,17.1197085 C7.46547195,17.854889 7.73462957,18.9359268 7.43,19.93 C7.3218844,20.2839138 7.41805623,20.6686011 7.68,20.93 L10.28,23.53 C10.6700375,23.9177236 11.2999625,23.9177236 11.69,23.53 L23.51,11.69 C23.6993127,11.5022334 23.8057983,11.2466375 23.8057983,10.98 C23.8057983,10.7133625 23.6993127,10.4577666 23.51,10.27 Z M11,21.4 L9.5,19.9 C9.75310464,18.3722922 9.25364111,16.8163146 8.15866323,15.7213368 C7.06368536,14.6263589 5.5077078,14.1268954 3.98,14.38 L2.48,12.88 L12.86,2.45 L14.36,4 C14.1068954,5.5277078 14.6063589,7.08368536 15.7013368,8.17866323 C16.7963146,9.27364111 18.3522922,9.77310464 19.88,9.52 L21.38,11.02 L11,21.4 Z"/>
    </g>
  </g>
</svg>

<svg xmlns="http://www.w3.org/2000/svg" viewbox="0 0 24 24"><path class="icon__shape" fill-rule="nonzero" d="M9.45 10a1.13 1.13 0 1 0 .018-2.26A1.13 1.13 0 0 0 9.45 10zM14 10a1.13 1.13 0 1 0 .02-2.26A1.13 1.13 0 0 0 14 10zm-2.3 1.16a4.9 4.9 0 0 0-4 2.13 1 1 0 1 0 1.65 1.13 2.89 2.89 0 0 1 4.77 0 1 1 0 0 0 1.65-1.13 4.9 4.9 0 0 0-4.07-2.13zm11.81-.89l-2.6-2.6a1 1 0 0 0-1-.25 2.81 2.81 0 0 1-3.51-3.51 1 1 0 0 0-.25-1l-2.6-2.6a1 1 0 0 0-1.41 0L.32 12.16a1 1 0 0 0 0 1.41l2.6 2.6a1 1 0 0 0 1 .25 2.81 2.81 0 0 1 3.51 3.51 1 1 0 0 0 .25 1l2.6 2.6a1 1 0 0 0 1.41 0l11.82-11.84a1 1 0 0 0 0-1.42zM11 21.4l-1.5-1.5a4.8 4.8 0 0 0-5.52-5.52l-1.5-1.5L12.86 2.45 14.36 4a4.8 4.8 0 0 0 5.52 5.52l1.5 1.5L11 21.4z"/></svg>
